X: 2032
T: LADY GLENORCHY
R: Reel.
%R: reel
B: James Kerr "Merry Melodies" v.2 p.6 #32
Z: 2016 John Chambers <jc:trillian.mit.edu>
M: C
L: 1/8
K: A
ug !segno!|:\
aefd c2(Ae) | cA A/A/A (ae)eg |\
aefd c2(Ad) | B=G G/G/G (=gB)Be :|\
cAA=g fded | cAAe (ce)a2 |
cAA=g fded | B=GGA BcdB |\
cAA=g fded | cAAe (ce)a2 |\
cea=g fded | B=GGA BcdB |]
